dist/assets/img/heart__empty.svg

<svg xmlns="http://www.w3.org/2000/svg" width="30" height="27"><path fill-rule="evenodd" opacity=".502" fill="#DF4E4E" d="M13.702 25.675C10.622 23.471.577 15.833.617 10.046.663 3.441 5.007-.015 9.273-.015c2.233 0 4.334.923 5.994 2.544C16.917.967 19.01.079 21.246.079c4.261 0 8.598 3.407 8.642 9.918.04 5.747-9.976 13.446-13.047 15.669L15.275 26.8l-1.573-1.125zm1.546-18.454C12.154.003 3.363 1.687 3.305 10.065c-.034 4.843 11.961 13.424 11.961 13.424s11.969-8.664 11.935-13.474c-.058-8.398-9.003-9.724-11.953-2.794z"/></svg>

<svg
  xmlns="http://www.w3.org/2000/svg"
  xmlns:xlink="http://www.w3.org/1999/xlink"
  width="30px" height="27px">
  <path fill-rule="evenodd"  opacity="0.502" fill="rgb(223, 78, 78)"
        d="M13.702,25.675 C10.622,23.471 0.577,15.833 0.617,10.046 C0.663,3.441 5.007,-0.015 9.273,-0.015 C11.506,-0.015 13.607,0.908 15.267,2.529 C16.917,0.967 19.010,0.079 21.246,0.079 C25.507,0.079 29.844,3.486 29.888,9.997 C29.928,15.744 19.912,23.443 16.841,25.666 L15.275,26.800 L13.702,25.675 ZM15.248,7.221 C12.154,0.003 3.363,1.687 3.305,10.065 C3.271,14.908 15.266,23.489 15.266,23.489 C15.266,23.489 27.235,14.825 27.201,10.015 C27.143,1.617 18.198,0.291 15.248,7.221 Z"/>
</svg>
